packages/foundations/assets/icons/functional/images/transportation/scooter_20_inverted.svg

<svg width="20" height="20" viewBox="0 0 20 20" fill="none" xmlns="http://www.w3.org/2000/svg">
<g clip-path="url(#clip0_2214_6758)">
<path fill-rule="evenodd" clip-rule="evenodd" d="M16.1749 12.4187C17.1414 12.4187 17.9249 13.2022 17.9249 14.1687C17.9249 15.1352 17.1414 15.9187 16.1749 15.9187C15.2084 15.9187 14.4249 15.1352 14.4249 14.1687C14.4249 13.2022 15.2084 12.4187 16.1749 12.4187ZM7.68415 13.7913C7.99705 15.0037 6.94137 15.9187 5.97487 15.9187C5.00838 15.9187 4.00535 15.0859 4.2656 13.7913C4.2656 13.7913 3.81876 13.7913 2.92507 13.7913C2.49174 13.7913 2.13415 13.4671 2.0817 13.0479L2.07507 12.608C2.07507 10.7306 3.65831 9.0913 5.39901 9.09652L7.87307 9.0913L7.42787 7.6177L4.92487 7.6187C4.43361 7.6187 4.07487 7.21932 4.07487 6.7687C4.07487 6.31808 4.43361 5.9187 4.92487 5.9187H7.52462C8.14799 5.9187 8.79148 6.4039 9.00731 6.97705L10.5549 12.0907H11.5789L15.0749 8.5677V6.3194C15.0749 6.06532 14.9457 5.78924 14.7032 5.78924L12.8707 5.7813C12.4012 5.7813 12.0207 5.40074 12.0207 4.9313C12.0207 4.49797 12.3875 4.0813 12.8707 4.0813H14.7032C15.822 4.0813 16.6959 5.01899 16.7698 6.16229L16.7749 8.9187C16.7749 9.10561 16.7133 9.28621 16.6014 9.43336L12.5367 13.54C12.4037 13.6741 12.1721 13.7913 11.9333 13.7913C11.6945 13.7913 7.68415 13.7913 7.68415 13.7913Z" fill="#1A1C1F"/>
</g>
<defs>
<clipPath id="clip0_2214_6758">
<rect width="20" height="20" fill="white"/>
</clipPath>
</defs>
</svg>

<svg xmlns="http://www.w3.org/2000/svg" width="20" height="20" fill="none"><g clip-path="url(#a)"><path fill="#1A1C1F" fill-rule="evenodd" d="M16.175 12.419a1.75 1.75 0 1 1 0 3.5 1.75 1.75 0 0 1 0-3.5m-8.49 1.372c.312 1.213-.744 2.128-1.71 2.128-.967 0-1.97-.833-1.71-2.128h-1.34a.85.85 0 0 1-.843-.743l-.007-.44c0-1.877 1.583-3.517 3.324-3.511l2.474-.006-.445-1.473H4.925c-.491 0-.85-.399-.85-.85s.359-.85.85-.85h2.6c.623 0 1.266.486 1.482 1.059l1.548 5.114h1.024l3.496-3.523V6.319c0-.254-.13-.53-.372-.53l-1.832-.008a.85.85 0 0 1-.85-.85c0-.433.366-.85.85-.85h1.832c1.119 0 1.993.938 2.067 2.081l.005 2.757a.85.85 0 0 1-.174.514l-4.064 4.107a.9.9 0 0 1-.604.251z" clip-rule="evenodd"/></g><defs><clipPath id="a"><path fill="#fff" d="M0 0h20v20H0z"/></clipPath></defs></svg>
